X:17222
T:The Smoky Chimney
M:4/4
L:1/8
R:hornpipe
K:D
(3ABc | d3 e fdAF | GFGA BG E2 | ef (3gfe cABc | defe ADFA |
dcde fdAF | GFGA BG E2 | ef (3gfe cABc | dAfe d2 :||
||: de | fefg afdf | gfga bgeg | fgaf defe | (3efe (3dcB A2 Ae |
fefg afdf | gfga bgeg | afge (3fed ec |1 Agfe d2 :|| 2 Agfe def^g |
||: a2 ^g2 a3 f | fe^df e2 c2 | B2 A2 B2 ^G | 1 EB^GB A (3ef^g :||
2 EB^GB A3 B ||
||: c2 a2 c2 Ac | d2 b2 B3 c | def^g agaf | edcBc AB |
c2 a2 c2 Ac | d2 b2 B3 c | def^g ag (3agf | 1 edcB A3 B :||
2 (3efe (3dcB A4 ||
